X: 27283
T: Miss Thornton's
R: reel
M: 4/4
K: Gmajor
|:G2Bd gdBd|cBAB cedc|B2BA GBdg|ecAF GFED|
G2Bd gdBd|cBAB cedc|B2BA GBdg|1 ecAF G2DF:|2 egfa g2ga||
|:b2ag b2ag|egdg egdg|b2ag b2ag|egfa g2ga|
b2ag b2ag|egdg egdg|bgaf gfed|1 egfa g2ga:|2 egfa gedB||

